X:1
T:title
M:4/4
Q:120
L:1/8
R:Reel
K:C
 _D2b' ^b'2a _C _c' |  _D2 _a4E ^e | f' ^F2 ^c4 ^b | d4a'3b' |  ^CF _g4 _b'2 |  _c4 ^G2 ^c'2 |  ^b _g'2b'2 ^f2f' |  _e2 ^g'G _A4 | 